packages/radix-icons/outline/15/border-top.svg

<svg width="15" height="15" fill="none" xmlns="http://www.w3.org/2000/svg">
  <path
    fill-rule="evenodd"
    clip-rule="evenodd"
    d="M2.9 4V12C2.9 12.0552 2.94477 12.1 3 12.1H12C12.0552 12.1 12.1 12.0552 12.1 12V4H2.9ZM2 3C2 2.44771 2.44772 2 3 2H12C12.5523 2 13 2.44772 13 3V12C13 12.5523 12.5523 13 12 13H3C2.44771 13 2 12.5523 2 12V3Z"
    fill="currentColor"
  />
</svg>

<svg width="15" height="15" fill="none" xmlns="http://www.w3.org/2000/svg">
  <path
    fill-rule="evenodd"
    clip-rule="evenodd"
    d="M2.9 4v8a.1.1 0 00.1.1h9a.1.1 0 00.1-.1V4H2.9zM2 3a1 1 0 011-1h9a1 1 0 011 1v9a1 1 0 01-1 1H3a1 1 0 01-1-1V3z"
    fill="currentColor"
  />
</svg>
